icons/arrow-circle-down.svg

<svg width="24" height="24" viewBox="0 0 24 24" fill="none" xmlns="http://www.w3.org/2000/svg">
<path fill-rule="evenodd" clip-rule="evenodd" d="M20.25 12C20.25 7.44365 16.5563 3.75 12 3.75C7.44365 3.75 3.75 7.44365 3.75 12C3.75 16.5563 7.44365 20.25 12 20.25C16.5563 20.25 20.25 16.5563 20.25 12ZM12 2.25C17.3848 2.25 21.75 6.61522 21.75 12C21.75 17.3848 17.3848 21.75 12 21.75C6.61522 21.75 2.25 17.3848 2.25 12C2.25 6.61522 6.61522 2.25 12 2.25Z" fill="black"/>
<path fill-rule="evenodd" clip-rule="evenodd" d="M12 8.25C12.4142 8.25 12.75 8.58579 12.75 9L12.75 15.6C12.75 16.0142 12.4142 16.35 12 16.35C11.5858 16.35 11.25 16.0142 11.25 15.6L11.25 9C11.25 8.58579 11.5858 8.25 12 8.25Z" fill="black"/>
<path fill-rule="evenodd" clip-rule="evenodd" d="M15.5303 12.4697C15.8232 12.7626 15.8232 13.2374 15.5303 13.5303L13.0303 16.0303C12.5374 16.5232 11.7626 16.5232 11.2697 16.0303L8.76967 13.5303C8.47678 13.2374 8.47678 12.7626 8.76967 12.4697C9.06256 12.1768 9.53744 12.1768 9.83033 12.4697L12.15 14.7893L14.4697 12.4697C14.7626 12.1768 15.2374 12.1768 15.5303 12.4697Z" fill="black"/>
</svg>

<svg xmlns="http://www.w3.org/2000/svg" fill="none" viewBox="0 0 24 24">
  <path fill="#000" fill-rule="evenodd" d="M20.25 12a8.25 8.25 0 1 0-16.5 0 8.25 8.25 0 0 0 16.5 0ZM12 2.25c5.385 0 9.75 4.365 9.75 9.75s-4.365 9.75-9.75 9.75S2.25 17.385 2.25 12 6.615 2.25 12 2.25Z" clip-rule="evenodd"/>
  <path fill="#000" fill-rule="evenodd" d="M12 8.25a.75.75 0 0 1 .75.75v6.6a.75.75 0 0 1-1.5 0V9a.75.75 0 0 1 .75-.75Z" clip-rule="evenodd"/>
  <path fill="#000" fill-rule="evenodd" d="M15.53 12.47a.75.75 0 0 1 0 1.06l-2.5 2.5a1.233 1.233 0 0 1-1.76 0l-2.5-2.5a.75.75 0 1 1 1.06-1.06l2.32 2.32 2.32-2.32a.75.75 0 0 1 1.06 0Z" clip-rule="evenodd"/>
</svg>
